deepin/places/network-server.svg

<?xml version="1.0" encoding="UTF-8" standalone="no"?>
<!-- Created with Inkscape (http://www.inkscape.org/) -->

<svg
   xmlns:dc="http://purl.org/dc/elements/1.1/"
   xmlns:cc="http://creativecommons.org/ns#"
   xmlns:rdf="http://www.w3.org/1999/02/22-rdf-syntax-ns#"
   xmlns:svg="http://www.w3.org/2000/svg"
   xmlns="http://www.w3.org/2000/svg"
   xmlns:inkscape="http://www.inkscape.org/namespaces/inkscape"
   version="1.1"
   width="48"
   height="48"
   viewBox="0 0 48 48"
   id="svg2">
  <title
     id="title4">network-server</title>
  <desc
     id="desc6">Created with Sketch.</desc>
  <metadata
     id="metadata40">
    <rdf:RDF>
      <cc:Work
         rdf:about="">
        <dc:format>image/svg+xml</dc:format>
        <dc:type
           rdf:resource="http://purl.org/dc/dcmitype/StillImage" />
      </cc:Work>
    </rdf:RDF>
  </metadata>
  <defs
     id="defs8">
    <filter
       filterUnits="objectBoundingBox"
       x="-0.5"
       y="-0.5"
       width="2"
       height="2"
       color-interpolation-filters="sRGB"
       id="filter-1">
      <feOffset
         id="feOffset11"
         result="shadowOffsetOuter1"
         in="SourceAlpha"
         dy="1"
         dx="0" />
      <feGaussianBlur
         id="feGaussianBlur13"
         result="shadowBlurOuter1"
         in="shadowOffsetOuter1"
         stdDeviation="1" />
      <feColorMatrix
         id="feColorMatrix15"
         result="shadowMatrixOuter1"
         type="matrix"
         in="shadowBlurOuter1"
         values="0 0 0 0 0   0 0 0 0 0   0 0 0 0 0  0 0 0 0.21 0" />
      <feMerge
         id="feMerge17">
        <feMergeNode
           id="feMergeNode19"
           in="shadowMatrixOuter1" />
        <feMergeNode
           id="feMergeNode21"
           in="SourceGraphic" />
      </feMerge>
    </filter>
    <linearGradient
       x1="0.5"
       y1="0"
       x2="0.5"
       y2="1"
       id="linearGradient-2">
      <stop
         id="stop24"
         style="stop-color:#8ec5ff;stop-opacity:1"
         offset="0" />
      <stop
         id="stop26"
         style="stop-color:#70bcff;stop-opacity:1"
         offset="0.97000003" />
      <stop
         id="stop28"
         style="stop-color:#0f70e6;stop-opacity:1"
         offset="1" />
    </linearGradient>
  </defs>
  <g
     id="Page-1"
     style="fill:none;stroke:none">
    <g
       id="network-server">
      <g
         transform="translate(4,5)"
         id="Group">
        <path
           d="M 2,6 2,2 24.172,2 26.237,0 38,0 38,6 40,6 40,36 0,36 0,6 2,6 z"
           inkscape:connector-curvature="0"
           id="Shape-4"
           style="fill:#31a4fc;filter:url(#filter-1)" />
        <path
           d="M 38,30 2,30 2,2 24.172,2 26.237,0 38,0 38,30 z"
           inkscape:connector-curvature="0"
           id="Shape"
           style="fill:#31a4fc" />
        <rect
           width="40"
           height="30"
           x="0"
           y="6"
           id="Rectangle-path"
           style="fill:url(#linearGradient-2)" />
      </g>
      <path
         d="m 24,18.5 c -3.866,0 -7,3.135 -7,7 0,3.865 3.134,7 7,7 3.866,0 7,-3.135 7,-7 0,-3.865 -3.134,-7 -7,-7 l 0,0 z m -0.006,13.127 c -0.141,0 -0.278,-0.012 -0.415,-0.021 -0.093,-0.181 -0.43,-0.906 -0.178,-1.296 0,0 1.048,-0.58 0.959,-1.249 0,0 1.116,-0.625 0.647,-1.026 0,0 0.045,-0.424 0.267,-0.447 0,0 0.424,-0.401 -0.156,-0.647 0,0 -0.822,-0.067 -1.024,-0.424 0,0 -0.314,-0.535 -0.827,-0.581 0,0 -0.58,-0.847 -1.451,-0.29 0,0 -0.635,0.137 -1.002,-0.045 0.127,0.135 0.291,0.272 0.466,0.313 0,0 0.603,0.156 0.157,0.759 0,0 -0.602,0.78 0.803,1.494 0,0 0.313,0.246 0.156,0.96 0,0 -0.326,1.654 0.357,2.185 0.144,0.113 0.261,0.187 0.362,0.243 -2.961,-0.429 -5.246,-2.977 -5.246,-6.055 0,-0.685 0.117,-1.34 0.325,-1.955 0.122,0.308 0.223,0.083 0.531,0.268 0.365,0.219 -0.256,0.42 0.203,0.583 0.458,0.164 0.253,0.037 0.417,0.475 0.164,0.439 0.73,0.351 0.73,0.351 0.638,-0.215 -0.054,0.501 0.735,0.574 0.001,0 0.002,0.197 0.003,0.197 l -10e-4,0 c 0.788,0 -0.025,-0.688 -0.025,-0.688 0.438,-0.456 -0.165,-0.427 -0.165,-0.427 -0.201,0.164 -0.474,-0.049 -0.474,-0.049 -0.548,-0.329 -0.127,-0.791 -0.127,-0.791 0.985,-0.785 1.13,-0.213 1.13,-0.213 0.019,0.474 0.256,0.451 0.256,0.451 0.42,0.018 0.457,-0.478 0.457,-0.478 -0.037,-0.383 0.255,-0.403 0.255,-0.403 0.512,-0.256 0.555,-0.513 0.555,-0.513 0.172,-0.565 0.649,-0.42 0.649,-0.42 0.64,-0.128 0.311,-0.365 0.311,-0.365 -0.09,-0.42 0.293,0.018 0.293,0.018 0.292,0.347 0.42,0 0.42,0 0.328,-0.475 -0.366,-0.639 -0.366,-0.639 -0.054,-0.419 0.347,-0.104 0.293,-0.816 0,0 0.054,-0.398 -0.329,-0.51 0,0 -0.401,-0.041 -0.073,-0.388 0,0 0.226,-0.256 0.406,0.073 0,0 0.269,0.273 0.743,0.037 0,0 0.729,0.182 0.381,0.529 0,0 -0.274,0.711 0.347,0.529 0,0 0.224,-0.219 0.517,-0.216 0,0 0.562,0.143 0.908,-0.387 l 0.045,-0.025 c 0.401,0.25 0.774,0.54 1.106,0.872 -0.49,-0.076 -0.499,0.283 -0.499,0.283 -0.498,0.476 0.206,0.476 0.206,0.476 0.456,-0.092 0.292,0.347 0.292,0.347 0.274,0.109 -0.073,0.295 -0.073,0.295 -0.875,0.404 -0.127,0.638 -0.127,0.638 0.249,0.465 -0.493,0.435 -0.401,0.727 0,0 -0.311,0.529 -0.657,0.566 0,0 -0.384,0.693 0.09,1.15 0,0 0.329,1.077 1.324,0.548 0,0 0.63,-0.402 0.739,0.292 0,0 0.096,0.732 0.649,0.728 -0.746,2.541 -3.095,4.403 -5.874,4.403 l 0,0 z"
         inkscape:connector-curvature="0"
         id="path36"
         style="fill:#ffffff" />
    </g>
  </g>
</svg>

<?xml version="1.0" encoding="UTF-8" standalone="no"?>
<svg width="48px" height="48px" viewBox="0 0 48 48" version="1.1" xmlns="http://www.w3.org/2000/svg" xmlns:xlink="http://www.w3.org/1999/xlink" xmlns:sketch="http://www.bohemiancoding.com/sketch/ns">
    <!-- Generator: Sketch 3.1.1 (8761) - http://www.bohemiancoding.com/sketch -->
    <title>network-server</title>
    <desc>Created with Sketch.</desc>
    <defs>
        <filter x="-50%" y="-50%" width="200%" height="200%" filterUnits="objectBoundingBox" id="filter-1">
            <feOffset dx="0" dy="1" in="SourceAlpha" result="shadowOffsetOuter1"></feOffset>
            <feGaussianBlur stdDeviation="1" in="shadowOffsetOuter1" result="shadowBlurOuter1"></feGaussianBlur>
            <feColorMatrix values="0 0 0 0 0   0 0 0 0 0   0 0 0 0 0  0 0 0 0.21 0" in="shadowBlurOuter1" type="matrix" result="shadowMatrixOuter1"></feColorMatrix>
            <feMerge>
                <feMergeNode in="shadowMatrixOuter1"></feMergeNode>
                <feMergeNode in="SourceGraphic"></feMergeNode>
            </feMerge>
        </filter>
        <linearGradient x1="50%" y1="0%" x2="50%" y2="100%" id="linearGradient-2">
            <stop stop-color="#8EC5FF" offset="0%"></stop>
            <stop stop-color="#70BCFF" offset="97%"></stop>
            <stop stop-color="#0F70E6" offset="100%"></stop>
        </linearGradient>
    </defs>
    <g id="Page-1" stroke="none" stroke-width="1" fill="none" fill-rule="evenodd" sketch:type="MSPage">
        <g id="network-server" sketch:type="MSArtboardGroup">
            <g id="Group" sketch:type="MSLayerGroup" transform="translate(4.000000, 5.000000)">
                <path d="M2,6 L2,2 L24.172,2 L26.237,0 L38,0 L38,6 L40,6 L40,36 L0,36 L0,6 L2,6 Z" id="Shape-4" fill="#31A4FC" filter="url(#filter-1)" sketch:type="MSShapeGroup"></path>
                <path d="M38,30 L2,30 L2,2 L24.172,2 L26.237,0 L38,0 L38,30 Z" id="Shape" fill="#31A4FC" sketch:type="MSShapeGroup"></path>
                <rect id="Rectangle-path" fill="url(#linearGradient-2)" sketch:type="MSShapeGroup" x="0" y="6" width="40" height="30"></rect>
            </g>
            <path d="M24,18.5 C20.134,18.5 17,21.635 17,25.5 C17,29.365 20.134,32.5 24,32.5 C27.866,32.5 31,29.365 31,25.5 C31,21.635 27.866,18.5 24,18.5 L24,18.5 Z M23.994,31.627 C23.853,31.627 23.716,31.615 23.579,31.606 C23.486,31.425 23.149,30.7 23.401,30.31 C23.401,30.31 24.449,29.73 24.36,29.061 C24.36,29.061 25.476,28.436 25.007,28.035 C25.007,28.035 25.052,27.611 25.274,27.588 C25.274,27.588 25.698,27.187 25.118,26.941 C25.118,26.941 24.296,26.874 24.094,26.517 C24.094,26.517 23.78,25.982 23.267,25.936 C23.267,25.936 22.687,25.089 21.816,25.646 C21.816,25.646 21.181,25.783 20.814,25.601 C20.941,25.736 21.105,25.873 21.28,25.914 C21.28,25.914 21.883,26.07 21.437,26.673 C21.437,26.673 20.835,27.453 22.24,28.167 C22.24,28.167 22.553,28.413 22.396,29.127 C22.396,29.127 22.07,30.781 22.753,31.312 C22.897,31.425 23.014,31.499 23.115,31.555 C20.154,31.126 17.869,28.578 17.869,25.5 C17.869,24.815 17.986,24.16 18.194,23.545 C18.316,23.853 18.417,23.628 18.725,23.813 C19.09,24.032 18.469,24.233 18.928,24.396 C19.386,24.56 19.181,24.433 19.345,24.871 C19.509,25.31 20.075,25.222 20.075,25.222 C20.713,25.007 20.021,25.723 20.81,25.796 C20.811,25.796 20.812,25.993 20.813,25.993 L20.812,25.993 C21.6,25.993 20.787,25.305 20.787,25.305 C21.225,24.849 20.622,24.878 20.622,24.878 C20.421,25.042 20.148,24.829 20.148,24.829 C19.6,24.5 20.021,24.038 20.021,24.038 C21.006,23.253 21.151,23.825 21.151,23.825 C21.17,24.299 21.407,24.276 21.407,24.276 C21.827,24.294 21.864,23.798 21.864,23.798 C21.827,23.415 22.119,23.395 22.119,23.395 C22.631,23.139 22.674,22.882 22.674,22.882 C22.846,22.317 23.323,22.462 23.323,22.462 C23.963,22.334 23.634,22.097 23.634,22.097 C23.544,21.677 23.927,22.115 23.927,22.115 C24.219,22.462 24.347,22.115 24.347,22.115 C24.675,21.64 23.981,21.476 23.981,21.476 C23.927,21.057 24.328,21.372 24.274,20.66 C24.274,20.66 24.328,20.262 23.945,20.15 C23.945,20.15 23.544,20.109 23.872,19.762 C23.872,19.762 24.098,19.506 24.278,19.835 C24.278,19.835 24.547,20.108 25.021,19.872 C25.021,19.872 25.75,20.054 25.402,20.401 C25.402,20.401 25.128,21.112 25.749,20.93 C25.749,20.93 25.973,20.711 26.266,20.714 C26.266,20.714 26.828,20.857 27.174,20.327 L27.219,20.302 C27.62,20.552 27.993,20.842 28.325,21.174 C27.835,21.098 27.826,21.457 27.826,21.457 C27.328,21.933 28.032,21.933 28.032,21.933 C28.488,21.841 28.324,22.28 28.324,22.28 C28.598,22.389 28.251,22.575 28.251,22.575 C27.376,22.979 28.124,23.213 28.124,23.213 C28.373,23.678 27.631,23.648 27.723,23.94 C27.723,23.94 27.412,24.469 27.066,24.506 C27.066,24.506 26.682,25.199 27.156,25.656 C27.156,25.656 27.485,26.733 28.48,26.204 C28.48,26.204 29.11,25.802 29.219,26.496 C29.219,26.496 29.315,27.228 29.868,27.224 C29.122,29.765 26.773,31.627 23.994,31.627 L23.994,31.627 Z" id="Shape" fill="#FFFFFF" sketch:type="MSShapeGroup"></path>
        </g>
    </g>
</svg>
